X:1265
T: Farewell to Liberty
S: "The Roche Collection of Traditional Irish Music" [III/31/100]
L: 1/8
M: 6/8
R: jig
K: Edor
F/E/ | G3 AGA | Bee e2d | Bdd dBA | BGE DEF |
GFG AGA | Bee e2d | Bdd dBA | BGE E2 :|
e/f/ | g2e f2e | dBB B2A | Ggg gfe | Bee e2f |
gfe fed | edB B2A | GG/A/B dBA | BGE E2 :|
